X: 21372
T: Kerry Mills
R: barndance
M: 4/4
K: Gmajor
"Intro"G>F|E3D B,3A,|G,>A,B,>C D3z|(3ddd d2 (3^ddd d2|(3eee e>^e f2z2|
D2B2 B>AG>E|D2 B2 B>AG>E|D2G2 AB3|d6z2|1 d2A2 A>Bc2|B2A2 G3z|
A2E2 E>FG2|F2e2 d3z|2 d2e2 d>BA>G|c2d2 c>GG>A|B>ed>B G2A2|G4G2||
B,>C|D3E G3A|B2e2 d<BA>G|E2G2 A3G|B4B2 B,>C|D3E G3A|B2e2 d<BA>G|
E2A2 B3E|A4A2 B,>C|D3E G3A|B2e2 d<BA>G|E2G2 A3G|B4B2 B>c|d2^c2=c2B2|
e2c4 B>A|d2e2B2A2|1 G2z4B,>C|2 G4G2||

